packages/tokens/icons/plug/size32Px.svg

<svg viewBox="0 0 32 32" fill="none" xmlns="http://www.w3.org/2000/svg" width="1em" height="1em"><path d="M7.48523 7.48486L4.6568 4.65644" stroke="currentColor" stroke-linecap="round"/><path d="M8.30299 18.8711C6.94818 17.3524 5.85922 15.5582 5.59105 13.6775C5.32745 11.8288 5.84663 9.83094 7.83878 7.83879C9.83092 5.84664 11.8288 5.32746 13.6775 5.59106C15.5582 5.85923 17.3524 6.9482 18.8711 8.303C19.0543 8.46649 19.0709 8.76886 18.8696 8.97016L8.97015 18.8697C8.76885 19.071 8.46648 19.0544 8.30299 18.8711Z" stroke="currentColor" stroke-linejoin="round"/><path d="M12.7888 18.3443C12.9841 18.5396 13.3007 18.5396 13.4959 18.3443C13.6912 18.149 13.6912 17.8325 13.4959 17.6372L12.7888 18.3443ZM17.2332 13.8994C17.4285 14.0946 17.7451 14.0946 17.9403 13.8994C18.1356 13.7041 18.1356 13.3875 17.9403 13.1923L17.2332 13.8994ZM13.4959 17.6372L11.8799 16.0212L11.1728 16.7283L12.7888 18.3443L13.4959 17.6372ZM17.9403 13.1923L16.3243 11.5763L15.6172 12.2834L17.2332 13.8994L17.9403 13.1923Z" fill="currentColor"/><path d="M24.375 24.3745C25.4796 25.4791 26.0989 26.0984 27.2034 27.2029" stroke="currentColor" stroke-linecap="round"/><path d="M12.9893 23.5566C14.5079 24.9114 16.3021 26.0004 18.1828 26.2686C20.0315 26.5322 22.0294 26.013 24.0216 24.0208C26.0137 22.0287 26.5329 20.0308 26.2693 18.1821C26.0011 16.3014 24.9122 14.5072 23.5574 12.9885C23.3939 12.8053 23.0915 12.7887 22.8902 12.99L12.9907 22.8895C12.7894 23.0908 12.806 23.3931 12.9893 23.5566Z" stroke="currentColor" stroke-linejoin="round"/></svg>

<svg xmlns="http://www.w3.org/2000/svg" fill="none" viewBox="0 0 32 32" width="1em" height="1em"><path stroke="currentColor" stroke-linecap="round" d="M7.485 7.485 4.657 4.656"/><path stroke="currentColor" stroke-linejoin="round" d="M8.303 18.871c-1.355-1.519-2.444-3.313-2.712-5.193-.264-1.85.256-3.847 2.248-5.84 1.992-1.991 3.99-2.51 5.838-2.247 1.881.268 3.675 1.357 5.194 2.712.183.163.2.466-.001.667l-9.9 9.9a.457.457 0 0 1-.667.001Z"/><path fill="currentColor" d="M12.789 18.344a.5.5 0 1 0 .707-.707l-.707.707Zm4.444-4.445a.5.5 0 0 0 .707-.707l-.707.707Zm-3.737 3.738-1.616-1.616-.707.707 1.616 1.616.707-.707Zm4.444-4.445-1.616-1.616-.707.707 1.616 1.616.707-.707Z"/><path stroke="currentColor" stroke-linecap="round" d="m24.375 24.375 2.828 2.828"/><path stroke="currentColor" stroke-linejoin="round" d="M12.99 23.557c1.518 1.354 3.312 2.443 5.193 2.712 1.849.263 3.846-.256 5.839-2.248 1.992-1.992 2.51-3.99 2.247-5.839-.268-1.88-1.357-3.675-2.712-5.193a.458.458 0 0 0-.667.001l-9.9 9.9a.457.457 0 0 0 0 .667Z"/></svg>
